public/illustrations/_treasure.svg

<svg width="259" height="355" viewBox="0 0 259 355" fill="none" xmlns="http://www.w3.org/2000/svg">
<path d="M231.782 218.339L122.421 155.631C122.024 155.843 121.515 156.225 121.147 156.579C115.851 163.262 110.528 169.804 105.247 176.487C104.553 177.463 103.845 178.313 102.995 179.177C102.16 180.182 101.126 180.805 99.8378 180.876C98.5777 181.102 97.3885 180.876 96.4115 180.182C91.9799 177.081 87.6755 173.81 83.4703 170.384C80.9359 168.246 80.9642 165.938 82.7482 163.036C83.9942 161.096 85.3961 159.27 86.7978 157.443C90.2666 152.658 93.9052 147.999 97.2183 143.1C99.512 139.816 102.174 136.913 105.501 134.605C113.586 128.291 122.223 122.613 131.284 117.714C144.395 110.522 158.639 105.708 173.548 103.81C182.935 102.451 192.676 103.032 201.823 105.17C202.87 105.41 203.762 105.552 204.952 105.764C207.302 102.763 209.511 99.7893 211.875 96.9292C215.16 92.7524 217.114 92.4127 221.631 95.2161C226.147 98.0195 230.989 101.049 235.563 104.122C240.759 107.52 241.084 109.332 237.814 114.5L235.11 118.719C233.76 120.871 233.911 122.811 235.563 124.539C242.5 132.085 247.767 140.793 251.321 150.378C256.121 163.772 258.599 177.846 258.344 191.976C258.372 201.165 257.579 210.51 255.866 219.585C255.555 221.072 255.824 222.615 256.631 223.904C257.452 225.334 257.891 226.99 257.876 228.576C257.622 233.659 257.225 238.756 256.687 243.882C256.574 244.901 256.333 245.963 255.923 246.897C255.371 247.86 254.776 248.54 253.898 249.262C253.275 249.8 252.652 250.338 252.355 251.117C252.057 251.895 251.902 252.632 251.916 253.495C250.967 267.753 249.778 282.195 248.971 296.424C248.036 313.981 247.371 331.495 246.436 349.052C246.238 352.818 245.898 353.313 242.217 353.681C237.984 354.134 233.85 354.29 229.531 354.333C214.424 354.262 199.288 354.05 184.025 353.852L118.881 352.945L96.1423 352.775C94.6981 352.747 93.3675 352.549 91.4844 352.45C90.918 349.236 90.2098 346.064 89.8134 342.964C88.7232 333.52 87.6472 324.076 86.6986 314.618C85.9057 306.845 85.3961 299.029 84.7448 291.242C84.0935 283.455 83.3005 275.682 82.4935 267.781C81.5165 259.753 80.3981 251.768 79.4212 243.74C79.3221 243.188 79.1944 242.48 78.8263 241.97C78.5856 241.432 78.076 240.951 77.5805 240.611C76.6177 240.059 75.8956 239.181 75.4425 238.261C74.8478 237.354 74.6495 236.236 74.5928 235.103C74.2247 230.572 73.885 226.169 73.6585 221.61C73.2762 215.352 76.3204 212.223 82.536 212.435C95.5478 212.874 108.729 213.441 121.77 214.021C135.532 214.616 149.294 215.224 162.915 215.847L201.752 217.646C211.026 218.028 220.285 218.41 229.418 218.821L231.513 218.453L231.796 218.41L231.782 218.339ZM249.395 193.392C249.551 192.641 249.707 191.905 249.863 191.155C249.707 176.373 247.456 161.96 241.339 148.382C230.111 123.76 208.01 110.111 180.089 111.569C164.854 112.376 150.597 117.19 137.16 124.156C136.792 124.51 136.424 124.864 136.056 125.218C173.831 147.9 211.436 170.469 249.509 193.25L249.395 193.42V193.392ZM219.818 283.554L115.398 279.207C117.31 290.081 117.876 300.629 119.872 311.192L217.992 311.616C218.487 302.187 219.195 293.153 219.705 283.71L219.818 283.54V283.554ZM114.265 269.494L220.427 273.969L222.013 250.253C217.949 249.248 114.492 244.575 111.165 245.312C112.142 253.339 113.104 261.212 114.265 269.494ZM217.411 321.357C206.467 321.272 195.805 321.131 185.172 321.131C174.539 321.131 163.594 321.046 152.819 321.074C142.328 321.046 131.638 320.777 120.906 321.074C121.769 329.258 122.421 337.059 124.219 344.79L154.872 345.002C164.953 345.102 175.19 345.314 185.257 345.271C195.324 345.229 205.376 346.05 215.754 345.371C216.335 337.215 216.873 329.654 217.397 321.216L217.425 321.357H217.411ZM84.32 220.987C83.9519 224.64 84.065 228.505 84.8437 232.116C85.141 233.786 86.2598 234.452 87.9589 234.296C89.2331 234.211 90.4932 233.999 91.7958 234.055C105.997 234.721 120.212 235.386 134.413 236.052L238.04 240.823C240.787 240.908 243.676 240.979 246.847 241.007L247.965 227.726L84.4472 220.831L84.3342 221.001L84.32 220.987ZM249.381 204.761L126.088 130.697C119.533 134.294 114.718 138.017 113.161 140.594L247.598 217.589C248.235 213.016 248.829 209.037 249.48 204.606L249.367 204.775L249.381 204.761ZM90.0401 243.697C90.4366 246.784 90.6488 249.63 90.9745 252.306C91.8948 259.187 92.8152 266.068 93.5798 272.836C93.8488 274.365 93.5371 275.866 93.6645 277.423C94.3016 284.361 95.0948 291.256 95.7178 298.052C96.9213 309.776 97.8414 321.542 99.059 333.407C99.3988 336.946 100.291 340.372 100.999 344.422L114.223 344.393C109.876 310.653 105.756 277.451 101.48 244.136L90.026 243.57L90.0543 243.712L90.0401 243.697ZM231.655 250.281C229.63 282.124 227.563 313.684 225.524 345.385C229.234 346.022 232.986 346.092 236.625 345.583C236.837 343.53 236.964 341.788 237.092 340.033C238.423 322.264 237.899 304.523 239.499 286.711C239.782 282.634 239.64 278.499 239.923 274.422C240.065 271.958 240.674 269.693 240.957 267.201C241.452 262.656 241.636 258.026 241.976 253.368C241.976 252.504 241.962 251.64 241.906 250.508L231.91 250.111L231.655 250.295V250.281ZM91.3001 165.853L98.5637 171.191C103.802 164.225 109.395 158.364 114.308 151.171L105.53 146.244L91.1584 165.882L91.3001 165.853ZM213.631 108.539L226.756 116.157L229.97 110.706L217.85 103.06L213.518 108.709L213.631 108.539Z" fill="#102185"/>
<path d="M176.237 37.5787L180.201 39.5608C184.166 41.543 187.139 45.0827 188.696 49.1887C193.227 61.0819 182.608 71.1345 173.264 70.0018C166.468 69.1523 160.096 62.3562 159.53 54.8521C159.388 52.5868 159.53 50.3214 159.53 47.6313C158.822 47.7729 157.972 48.056 157.264 48.3392C146.929 54.4274 140.557 63.3473 138.575 75.2406C138.15 77.6475 138.15 80.0545 138.008 82.4614C137.867 85.1516 136.593 86.7089 134.186 86.9921C133.053 86.9921 131.92 86.709 131.071 86.0011C130.221 85.2931 129.655 84.302 129.513 83.1693C129.372 82.0367 129.23 80.9039 129.23 79.7712C129.23 67.5948 134.186 57.4007 142.398 48.6223C147.778 42.5341 154.999 38.5697 162.928 37.1539C164.627 36.7291 166.184 35.738 167.175 34.1806C173.972 25.827 183.599 20.1635 194.218 18.3228C197.05 17.8981 199.882 17.8982 202.713 18.0397C203.846 18.0397 204.979 18.4644 205.97 19.0308C206.678 19.4555 207.386 20.022 207.669 20.7299C208.094 21.4378 208.235 22.2873 208.094 23.1368C208.094 23.9863 207.669 24.8358 207.103 25.4022C206.536 25.9685 205.828 26.3933 204.979 26.5349C203.563 26.6765 202.147 26.6765 200.731 26.5349C190.962 26.1102 183.316 30.6409 176.095 37.1539L176.237 37.5787ZM170.29 46.0739C169.016 48.0561 168.166 50.4629 168.166 52.8699C168.166 54.5689 168.45 56.1264 169.299 57.5423C170.149 58.9582 171.423 60.0908 172.839 60.6571C173.688 61.0819 174.821 61.2235 175.812 61.082C177.369 60.6572 178.644 59.6661 179.635 58.2502C180.485 56.8344 180.909 55.2768 180.626 53.7194C179.918 49.3302 175.671 46.2154 170.29 46.2154V46.0739Z" fill="#102185"/>
<path d="M47.9599 129.468V114.035C47.9599 112.053 47.6767 110.212 47.5351 108.23C47.1104 101.859 44.2786 97.6111 37.9072 95.9121C36.9161 95.7705 35.9251 95.2042 35.2172 94.3547C34.5092 93.5051 34.2258 92.514 34.2258 91.5229C34.2258 89.5407 35.6416 88.1249 38.4734 87.1338C41.5883 86.1427 44.4201 85.01 47.3934 83.5941C53.34 80.4793 56.1718 75.099 57.3044 68.7276C57.8708 65.8959 57.8709 62.7809 58.1541 59.9492C58.1541 58.3917 58.4373 56.8343 58.862 55.4185C58.862 54.8521 59.1451 54.4274 59.4282 53.8611C59.7114 53.4363 60.1362 53.0115 60.561 52.7283C60.9858 52.4451 61.5522 52.3035 62.1186 52.1619H63.8176C64.8087 52.4451 65.6582 53.0116 66.3662 53.8611C66.9325 54.7106 67.2157 55.7017 67.0741 56.8343C66.9325 60.374 66.5076 63.772 66.2245 67.17C66.2245 68.4443 66.083 69.7187 65.6582 70.993C63.8176 74.9574 65.5165 78.3554 67.2155 81.895C68.9145 85.1515 71.7464 87.7001 75.1445 88.8328C77.1267 89.6823 79.2505 90.2486 81.2328 91.0981C82.2239 91.3813 83.0733 91.9476 83.6397 92.6555C84.206 93.3634 84.6308 94.3546 84.7724 95.3457C85.0556 97.4695 83.6397 98.8854 81.9407 100.018C78.401 102.142 74.7196 104.124 71.4631 106.531C64.9501 111.203 60.7027 117.433 59.57 125.504C58.7204 131.592 58.154 137.68 57.3044 143.91C57.1629 145.892 56.7382 147.733 56.7382 149.715C56.7382 150.847 56.1719 151.98 55.3224 152.83C54.4729 153.679 53.3402 154.104 52.2075 154.104C49.9422 153.962 48.2429 152.122 48.1013 149.29V129.61L47.9599 129.468ZM69.1979 96.62L58.2955 86.1426L50.0837 92.3724C51.6412 94.921 53.0571 97.4695 54.3313 100.16C55.1809 102.85 56.0302 105.54 56.5965 108.372L69.1979 96.62Z" fill="#102185"/>
<path d="M29.809 182.094C28.9595 189.032 30.3754 196.111 33.7735 202.199C35.3309 205.172 37.5963 207.721 40.428 209.562C41.5607 210.27 42.5517 210.977 43.5428 211.827C46.0914 214.376 45.9499 217.49 42.9766 219.614C41.7023 220.464 40.2863 221.172 38.8704 221.738C33.7733 224.145 29.5258 228.393 27.2604 233.631C25.5613 237.313 25.9861 241.418 25.8445 245.383C25.8445 249.347 25.986 252.887 26.1276 256.568V258.834C26.1276 259.825 25.7028 260.816 24.9949 261.665C24.2869 262.373 23.296 262.798 22.3049 262.94C21.3137 262.94 20.3226 262.656 19.4731 261.949C18.6236 261.241 18.1988 260.391 18.0573 259.258C17.9157 257.701 17.7742 256.144 17.7742 254.728C17.7742 246.657 16.9246 238.587 15.2255 230.658C14.6592 228.251 13.6682 225.986 12.5355 223.862C11.8276 222.588 10.8365 221.597 9.7038 220.747C8.42952 220.039 7.01345 219.614 5.59758 219.614H4.88965C2.05792 219.331 0.359023 218.057 0.0758502 215.933C-0.348909 213.526 1.06696 212.11 2.90758 210.978C3.61551 210.553 4.46496 210.128 5.31448 209.703C15.0839 205.314 19.473 197.102 20.7473 186.908C21.0304 184.501 21.1722 182.094 21.5969 179.687C22.1633 176.572 23.5793 175.156 25.9862 175.439C28.3932 175.723 29.5258 177.138 29.809 179.97V182.094ZM24.7118 204.181L15.9335 214.092L22.8711 223.862C24.5701 222.304 26.1275 220.747 27.8266 219.189C29.5256 217.632 31.3664 216.358 32.9238 215.084L24.8535 204.181H24.7118Z" fill="#102185"/>
<path d="M48.2433 58.3922C47.1106 58.3922 45.9778 57.8258 45.2699 56.9763C44.562 56.1268 44.1371 54.9942 44.1371 53.8615C44.1371 52.7288 44.7035 51.596 45.553 50.8881C46.4025 50.0385 47.5355 49.7555 48.6682 49.7555C49.2345 49.7555 49.8008 49.7554 50.3671 50.0386C50.9335 50.3217 51.3582 50.605 51.783 51.0298C52.2078 51.4545 52.4909 51.8793 52.774 52.4456C52.9156 53.012 53.0571 53.5783 53.0571 54.1446C53.0571 55.2773 52.4908 56.4099 51.6413 57.2594C50.7918 58.1089 49.6591 58.3922 48.5264 58.3922H48.2433Z" fill="#102185"/>
<path d="M83.7809 29.7918C83.2145 29.7918 82.6483 29.7917 82.0819 29.5085C81.5156 29.3669 81.0908 28.9422 80.6661 28.659C80.2413 28.2343 79.9582 27.8095 79.675 27.2432C79.3919 26.6768 79.3919 26.1105 79.3919 25.5442C79.3919 24.9779 79.3919 24.4114 79.675 23.9866C79.8166 23.4203 80.0999 22.9955 80.5247 22.5708C80.9494 22.146 81.3741 21.8629 81.7988 21.5797C82.2236 21.2965 82.7901 21.1549 83.3564 21.1549C83.9228 21.1549 84.489 21.155 85.0554 21.2966C85.6217 21.4382 86.1879 21.7213 86.6126 22.1461C87.0374 22.5709 87.4622 22.9956 87.7454 23.562C88.0286 24.1283 88.1702 24.6946 88.1702 25.2609C88.1702 25.8273 88.1703 26.3937 87.8871 26.9601C87.7455 27.5264 87.4622 28.0927 87.0375 28.3759C86.6127 28.8007 86.1879 29.2254 85.6216 29.367C85.0552 29.6501 84.489 29.7918 83.9226 29.7918H83.7809Z" fill="#102185"/>
<path d="M102.046 53.2942C102.046 53.8605 102.046 54.4268 101.763 54.9931C101.48 55.5595 101.196 55.9842 100.771 56.409C100.347 56.8338 99.9219 57.117 99.3555 57.4002C98.7892 57.6834 98.2229 57.6833 97.6565 57.6833C97.0902 57.6833 96.5239 57.6834 95.9576 57.4002C95.3912 57.2586 94.9665 56.8338 94.5417 56.409C94.117 55.9842 93.8339 55.5595 93.5507 54.9931C93.2675 54.4268 93.2676 53.8605 93.2676 53.2942C93.2676 52.1615 93.6922 51.0287 94.5417 50.1792C95.3912 49.3297 96.5239 48.905 97.6565 48.905C98.2229 48.905 98.7892 48.905 99.3555 49.1881C99.9219 49.4713 100.347 49.7544 100.771 50.1792C101.196 50.6039 101.48 51.0287 101.763 51.595C101.904 52.1614 102.046 52.7278 102.046 53.2942Z" fill="#102185"/>
<path d="M100.348 4.30624C100.348 5.43893 99.9229 6.42999 99.2149 7.27951C98.507 8.12903 97.5159 8.55382 96.3832 8.55382C95.5337 8.55382 94.6842 8.55379 93.9763 7.98744C93.2684 7.56268 92.7018 6.85468 92.277 6.14675C91.8522 5.43882 91.7107 4.44782 91.9939 3.59831C91.9939 2.74879 92.5603 2.04072 93.1267 1.33279C93.693 0.766446 94.4009 0.341826 95.2505 0.058654C96.1 -0.0829321 96.9496 0.0586195 97.7991 0.200206C98.6486 0.483378 99.2148 1.04969 99.7812 1.75762C100.347 2.46555 100.489 3.315 100.489 4.16451L100.348 4.30624Z" fill="#102185"/>
</svg>

<svg xmlns="http://www.w3.org/2000/svg" width="259" height="355" fill="none" viewBox="0 0 259 355"><path fill="#102185" d="m231.782 218.339-109.361-62.708a6.4 6.4 0 0 0-1.274.948c-5.296 6.683-10.619 13.225-15.9 19.908a21.5 21.5 0 0 1-2.252 2.69c-.835 1.005-1.869 1.628-3.157 1.699-1.26.226-2.45 0-3.426-.694a222 222 0 0 1-12.942-9.798c-2.534-2.138-2.506-4.446-.722-7.348 1.246-1.94 2.648-3.766 4.05-5.593 3.469-4.785 7.107-9.444 10.42-14.343 2.294-3.284 4.956-6.187 8.283-8.495a184.6 184.6 0 0 1 25.783-16.891c13.111-7.192 27.355-12.006 42.264-13.904 9.387-1.359 19.128-.778 28.275 1.36 1.047.24 1.939.382 3.129.594 2.35-3.001 4.559-5.975 6.923-8.835 3.285-4.177 5.239-4.516 9.756-1.713 4.516 2.803 9.358 5.833 13.932 8.906 5.196 3.398 5.521 5.21 2.251 10.378l-2.704 4.219q-2.025 3.228.453 5.82c6.937 7.546 12.204 16.254 15.758 25.839 4.8 13.394 7.278 27.468 7.023 41.598.028 9.189-.765 18.534-2.478 27.609a5.86 5.86 0 0 0 .765 4.319c.821 1.43 1.26 3.086 1.245 4.672a281 281 0 0 1-1.189 15.306c-.113 1.019-.354 2.081-.764 3.015-.552.963-1.147 1.643-2.025 2.365-.623.538-1.246 1.076-1.543 1.855-.298.778-.453 1.515-.439 2.378-.949 14.258-2.138 28.7-2.945 42.929-.935 17.557-1.6 35.071-2.535 52.628-.198 3.766-.538 4.261-4.219 4.629-4.233.453-8.367.609-12.686.652-15.107-.071-30.243-.283-45.506-.481l-65.144-.907-22.739-.17c-1.444-.028-2.774-.226-4.658-.325-.566-3.214-1.274-6.386-1.67-9.486-1.09-9.444-2.167-18.888-3.115-28.346-.793-7.773-1.303-15.589-1.954-23.376s-1.445-15.56-2.252-23.461c-.977-8.028-2.095-16.013-3.072-24.041-.099-.552-.227-1.26-.595-1.77-.24-.538-.75-1.019-1.245-1.359-.963-.552-1.685-1.43-2.139-2.35-.594-.907-.792-2.025-.85-3.158-.367-4.531-.707-8.934-.933-13.493-.383-6.258 2.661-9.387 8.877-9.175 13.012.439 26.193 1.006 39.234 1.586 13.762.595 27.524 1.203 41.145 1.826l38.837 1.799c9.274.382 18.533.764 27.666 1.175l2.095-.368.283-.043zm17.613-24.947c.156-.751.312-1.487.468-2.237-.156-14.782-2.407-29.195-8.524-42.773-11.228-24.622-33.329-38.271-61.25-36.813-15.235.807-29.492 5.621-42.929 12.587l-1.104 1.062a85346 85346 0 0 0 113.453 68.032l-.114.17zm-29.577 90.162-104.42-4.347c1.912 10.874 2.478 21.422 4.474 31.985l98.12.424c.495-9.429 1.203-18.463 1.713-27.906l.113-.17zm-105.553-14.06 106.162 4.475 1.586-23.716c-4.064-1.005-107.521-5.678-110.848-4.941.977 8.027 1.939 15.9 3.1 24.182m103.146 51.863c-10.944-.085-21.606-.226-32.239-.226s-21.578-.085-32.353-.057c-10.491-.028-21.181-.297-31.913 0 .863 8.184 1.515 15.985 3.313 23.716l30.653.212c10.081.1 20.318.312 30.385.269s20.119.779 30.497.1c.581-8.156 1.119-15.717 1.643-24.155l.028.141zM84.32 220.987c-.368 3.653-.255 7.518.524 11.129.297 1.67 1.416 2.336 3.115 2.18 1.274-.085 2.534-.297 3.837-.241l42.617 1.997 103.627 4.771c2.747.085 5.636.156 8.807.184l1.118-13.281-163.518-6.895-.113.17zm165.061-16.226-123.293-74.064c-6.555 3.597-11.37 7.32-12.927 9.897l134.437 76.995c.637-4.573 1.231-8.552 1.882-12.983l-.113.169zm-159.34 38.936c.396 3.087.608 5.933.934 8.609.92 6.881 1.84 13.762 2.605 20.53.269 1.529-.043 3.03.085 4.587.637 6.938 1.43 13.833 2.053 20.629 1.203 11.724 2.123 23.49 3.341 35.355.34 3.539 1.232 6.965 1.94 11.015l13.224-.029c-4.347-33.74-8.467-66.942-12.743-100.257l-11.454-.566.028.142zm141.614 6.584c-2.025 31.843-4.092 63.403-6.131 95.104 3.71.637 7.462.707 11.101.198.212-2.053.339-3.795.467-5.55 1.331-17.769.807-35.51 2.407-53.322.283-4.077.141-8.212.424-12.289.142-2.464.751-4.729 1.034-7.221.495-4.545.679-9.175 1.019-13.833 0-.864-.014-1.728-.07-2.86l-9.996-.397-.255.184zM91.3 165.853l7.264 5.338c5.238-6.966 10.831-12.827 15.744-20.02l-8.778-4.927-14.372 19.638zm122.331-57.314 13.125 7.618 3.214-5.451-12.12-7.646-4.332 5.649zM176.237 37.579l3.964 1.982c3.965 1.982 6.938 5.522 8.495 9.628 4.531 11.893-6.088 21.946-15.432 20.813-6.796-.85-13.168-7.646-13.734-15.15-.142-2.265 0-4.53 0-7.22-.708.14-1.558.424-2.266.707-10.335 6.088-16.707 15.008-18.689 26.902-.425 2.406-.425 4.814-.567 7.22-.141 2.69-1.415 4.248-3.822 4.531-1.133 0-2.266-.283-3.115-.99a4.38 4.38 0 0 1-1.558-2.833c-.141-1.132-.283-2.265-.283-3.398 0-12.176 4.956-22.37 13.168-31.149 5.38-6.088 12.601-10.052 20.53-11.468 1.699-.425 3.256-1.416 4.247-2.973 6.797-8.354 16.424-14.017 27.043-15.858 2.832-.425 5.664-.425 8.495-.283 1.133 0 2.266.424 3.257.99.708.425 1.416.992 1.699 1.7.425.708.566 1.557.425 2.407 0 .85-.425 1.699-.991 2.265s-1.275.991-2.124 1.133a21.3 21.3 0 0 1-4.248 0c-9.769-.425-17.415 4.106-24.636 10.619zm-5.947 8.495c-1.274 1.982-2.124 4.389-2.124 6.796 0 1.699.284 3.256 1.133 4.672.85 1.416 2.124 2.549 3.54 3.115.849.425 1.982.567 2.973.425 1.557-.425 2.832-1.416 3.823-2.832.85-1.416 1.274-2.973.991-4.53-.708-4.39-4.955-7.505-10.336-7.505zM47.96 129.468v-15.433c0-1.982-.283-3.823-.425-5.805-.425-6.371-3.256-10.619-9.628-12.318-.99-.142-1.982-.708-2.69-1.557-.708-.85-.991-1.841-.991-2.832 0-1.982 1.416-3.398 4.247-4.39a69 69 0 0 0 8.92-3.539c5.947-3.115 8.779-8.495 9.911-14.866.567-2.832.567-5.947.85-8.779 0-1.557.283-3.115.708-4.53 0-.567.283-.992.566-1.558a4.3 4.3 0 0 1 1.133-1.133c.425-.283.991-.425 1.558-.566h1.699q1.486.425 2.548 1.7c.567.849.85 1.84.708 2.972-.141 3.54-.566 6.938-.85 10.336 0 1.274-.141 2.549-.566 3.823-1.84 3.964-.142 7.362 1.558 10.902 1.699 3.257 4.53 5.805 7.929 6.938 1.982.85 4.106 1.416 6.088 2.265.99.283 1.84.85 2.407 1.558.566.707.99 1.699 1.132 2.69.284 2.123-1.132 3.54-2.831 4.672-3.54 2.124-7.221 4.106-10.478 6.513-6.513 4.672-10.76 10.902-11.893 18.973-.85 6.088-1.416 12.176-2.266 18.406-.141 1.982-.566 3.823-.566 5.805 0 1.132-.566 2.265-1.416 3.115a4.4 4.4 0 0 1-3.114 1.274c-2.266-.142-3.965-1.982-4.107-4.814v-19.68zM69.198 96.62 58.296 86.143l-8.212 6.23c1.557 2.548 2.973 5.096 4.247 7.787.85 2.69 1.7 5.38 2.265 8.212zM29.809 182.094c-.85 6.938.566 14.017 3.964 20.105 1.558 2.973 3.823 5.522 6.655 7.363a25 25 0 0 1 3.115 2.265c2.548 2.549 2.407 5.663-.566 7.787-1.275.85-2.69 1.558-4.107 2.124-5.097 2.407-9.344 6.655-11.61 11.893-1.699 3.682-1.274 7.787-1.416 11.752 0 3.964.142 7.504.284 11.185v2.266c0 .991-.425 1.982-1.133 2.831-.708.708-1.699 1.133-2.69 1.275-.991 0-1.982-.284-2.832-.991s-1.274-1.558-1.416-2.691c-.141-1.557-.283-3.114-.283-4.53 0-8.071-.85-16.141-2.549-24.07-.566-2.407-1.557-4.672-2.69-6.796-.707-1.274-1.699-2.265-2.831-3.115-1.274-.708-2.69-1.133-4.106-1.133H4.89c-2.832-.283-4.531-1.557-4.814-3.681-.425-2.407.991-3.823 2.832-4.955.708-.425 1.557-.85 2.406-1.275 9.77-4.389 14.159-12.601 15.433-22.795.283-2.407.425-4.814.85-7.221.566-3.115 1.982-4.531 4.39-4.248 2.406.284 3.539 1.699 3.822 4.531zm-5.097 22.087-8.778 9.911 6.937 9.77c1.7-1.558 3.257-3.115 4.956-4.673s3.54-2.831 5.097-4.105l-8.07-10.903zM48.243 58.392c-1.132 0-2.265-.566-2.973-1.416a4.95 4.95 0 0 1-1.133-3.114c0-1.133.566-2.266 1.416-2.974.85-.85 1.983-1.133 3.115-1.133.566 0 1.133 0 1.7.284.566.283.99.566 1.415.99s.708.85.991 1.417c.142.566.283 1.132.283 1.699 0 1.132-.566 2.265-1.416 3.114-.85.85-1.982 1.133-3.115 1.133zM83.78 29.792c-.566 0-1.132 0-1.698-.284-.566-.141-.991-.566-1.416-.849-.425-.425-.708-.85-.991-1.416s-.283-1.133-.283-1.699 0-1.133.283-1.557c.142-.567.425-.991.85-1.416.424-.425.85-.708 1.274-.991s.991-.425 1.557-.425c.567 0 1.133 0 1.7.142.566.141 1.132.424 1.557.85.424.424.85.849 1.132 1.415q.426.85.425 1.699c0 .566 0 1.133-.283 1.7-.141.565-.425 1.132-.85 1.415-.424.425-.85.85-1.415.991q-.85.425-1.7.425zM102.046 53.294c0 .567 0 1.133-.283 1.7-.283.566-.567.99-.992 1.415-.424.425-.85.708-1.415.991-.567.283-1.133.283-1.7.283-.566 0-1.132 0-1.698-.283-.567-.141-.992-.566-1.416-.991-.425-.425-.708-.85-.991-1.416s-.283-1.133-.283-1.699c0-1.133.424-2.265 1.274-3.115a4.4 4.4 0 0 1 3.114-1.274c.567 0 1.133 0 1.7.283.566.283.991.566 1.415.991s.709.85.992 1.416c.141.566.283 1.133.283 1.7M100.348 4.306c0 1.133-.425 2.124-1.133 2.974-.708.849-1.7 1.274-2.832 1.274-.85 0-1.699 0-2.407-.567-.708-.424-1.274-1.132-1.699-1.84s-.566-1.7-.283-2.549c0-.85.566-1.557 1.133-2.265q.849-.85 2.124-1.274c.849-.142 1.699 0 2.548.141.85.283 1.416.85 1.982 1.558s.708 1.557.708 2.407z"/></svg>
